svgs/sharp-solid/raygun.svg

<svg xmlns="http://www.w3.org/2000/svg" viewBox="0 0 576 512"><!--! Font Awesome Pro 6.6.0 by @fontawesome - https://fontawesome.com License - https://fontawesome.com/license (Commercial License) Copyright 2024 Fonticons, Inc. --><path d="M192 64l96 0 0-8 0-24 48 0 0 24 0 240 0 24-48 0 0-24 0-8L176 512 48 448l80-160-16 0C50.1 288 0 237.9 0 176C0 131.3 26.2 92.8 64 74.8L64 0 192 64zm224 0l0 24 0 56 64 0 96-48 0 160-96-48-64 0 0 56 0 24-48 0 0-24 0-176 0-24 48 0zM136 176a24 24 0 1 0 -48 0 24 24 0 1 0 48 0zm72 24a24 24 0 1 0 0-48 24 24 0 1 0 0 48z"/></svg>

<svg xmlns="http://www.w3.org/2000/svg" viewBox="0 0 576 512"><!--! Font Awesome Pro 6.5.2 by @fontawesome - https://fontawesome.com License - https://fontawesome.com/license (Commercial License) Copyright 2024 Fonticons, Inc. --><path d="M192 64h96V56 32h48V56 296v24H288V296v-8L176 512 48 448l80-160H112C50.1 288 0 237.9 0 176C0 131.3 26.2 92.8 64 74.8V0L192 64zm224 0V88v56h64l96-48V256l-96-48H416v56 24H368V264 88 64h48zM136 176a24 24 0 1 0 -48 0 24 24 0 1 0 48 0zm72 24a24 24 0 1 0 0-48 24 24 0 1 0 0 48z"/></svg>
